src/assets/tokens/NPM.svg

<svg width="154" height="154" viewBox="0 0 154 154" fill="none" xmlns="http://www.w3.org/2000/svg">
<path d="M76.7924 153.585C119.204 153.585 153.585 119.204 153.585 76.7924C153.585 34.3811 119.204 0 76.7924 0C34.3811 0 0 34.3811 0 76.7924C0 119.204 34.3811 153.585 76.7924 153.585Z" fill="#01052D"/>
<path d="M53.6404 45.5598C61.2145 43.1219 69.1301 41.9126 77.0865 41.978C84.8277 41.9403 92.5276 43.1078 99.9097 45.4387L100.29 44.7811C100.931 43.6391 101.553 42.549 102.159 41.4416L109.79 28.1699L95.4627 31.7863L98.0582 33.1879C98.7213 33.5206 99.2402 34.0839 99.5174 34.7721C99.7946 35.4603 99.811 36.226 99.5636 36.9254C99.2713 37.6309 98.7161 38.195 98.0153 38.4985C97.3146 38.8021 96.5233 38.8212 95.8088 38.5519C91.7844 36.9472 87.5763 35.8487 83.2811 35.2816C82.6011 35.1774 81.9816 34.8312 81.5365 34.3066C81.0914 33.782 80.8507 33.1144 80.8586 32.4265C80.8586 31.5775 81.1959 30.7633 81.7962 30.163C82.3966 29.5627 83.2108 29.2254 84.0598 29.2254H86.1189L76.7231 17.5802L67.3101 29.2254H69.3692C69.7925 29.2116 70.2143 29.2819 70.6102 29.4322C71.0061 29.5826 71.3682 29.81 71.6756 30.1013C71.983 30.3926 72.2296 30.742 72.401 31.1292C72.5724 31.5165 72.6652 31.9339 72.6742 32.3573C72.6821 33.0452 72.4414 33.7128 71.9963 34.2374C71.5512 34.762 70.9317 35.1082 70.2517 35.2124C65.5952 35.8045 61.0457 37.0511 56.7378 38.9153H56.4955C55.8052 38.7765 55.1737 38.4306 54.6852 37.9235C54.1967 37.4165 53.8745 36.7725 53.7616 36.0775C53.7031 35.5022 53.8186 34.9225 54.0932 34.4135C54.3677 33.9045 54.7887 33.4896 55.3016 33.2225L58.0701 31.7171L43.7602 28.1007L51.3391 41.3378C52.1004 42.7739 52.9137 44.1409 53.6404 45.5598Z" fill="white"/>
<path d="M82.7274 100.775C81.7957 100.192 80.7584 99.7993 79.6746 99.6182C78.5909 99.4371 77.4821 99.4715 76.4117 99.7193C75.3394 99.4593 74.2257 99.4188 73.1373 99.6002C72.049 99.7815 71.0086 100.181 70.0786 100.775C72.169 101.486 74.3459 101.91 76.5501 102.038C78.6599 101.921 80.7411 101.495 82.7274 100.775V100.775Z" fill="white"/>
<path d="M88.1088 113.96C89.0115 112.752 89.6484 111.366 89.9775 109.894C90.1886 108.026 89.7153 106.144 88.6452 104.599C87.9806 103.587 86.9924 102.83 85.842 102.453C85.2517 102.245 84.6739 102.002 84.1117 101.727C83.1006 102.698 81.9074 103.459 80.6007 103.967C79.294 104.475 77.8997 104.719 76.4982 104.685C73.591 104.667 70.7702 103.694 68.4694 101.917C68.0542 102.09 67.6216 102.246 67.1717 102.401C66.4748 102.651 65.8423 103.053 65.3202 103.578C64.5442 104.45 63.9526 105.469 63.5809 106.575C63.2092 107.682 63.0651 108.851 63.1573 110.015C63.4865 111.487 64.1233 112.873 65.0261 114.081C65.884 115.21 66.4667 116.524 66.7281 117.918C66.9894 119.311 66.9221 120.747 66.5315 122.11C66.3461 122.637 66.1024 123.142 65.8047 123.615C66.641 124.77 67.611 125.821 68.6944 126.747C70.6641 128.638 73.1859 129.85 75.8926 130.208C75.6479 129.944 75.4914 129.611 75.4449 129.254C75.3984 128.898 75.4641 128.535 75.633 128.218C75.8189 127.916 76.0396 127.638 76.2906 127.387C77.2596 126.211 78.8861 124.325 78.3151 122.56L78.1247 121.92L78.6957 122.283C78.6957 122.283 80.2876 123.46 78.3843 127.612C78.1317 128.071 77.9809 128.579 77.9421 129.102C77.9033 129.624 77.9774 130.149 78.1593 130.64C78.5798 131.529 79.3129 132.231 80.2184 132.613C80.3569 131.436 81.1528 127.422 84.3193 127.422C85.9421 127.244 87.4468 126.489 88.5587 125.294C87.3288 123.679 86.6258 121.726 86.5453 119.698C86.4648 117.67 87.0107 115.667 88.1088 113.96V113.96Z" fill="white"/>
<path d="M87.3647 90.289L84.7865 87.9703C84.7865 88.4721 84.302 89.095 83.1946 89.7007L82.8658 89.891C81.0803 90.8194 79.1768 91.5004 77.2076 91.9155C76.7082 91.9842 76.2017 91.9842 75.7022 91.9155H75.3389C73.4724 91.5119 71.6683 90.8601 69.9748 89.9775C68.3483 89.1124 67.9849 88.2472 67.9849 87.7108C67.4831 88.178 66.8948 88.7836 66.2546 89.4411C64.5243 91.1715 62.3267 93.2998 60.3022 95.0301C56.3398 98.4908 54.1422 109.946 55.5784 115.413C56.1596 117.33 57.145 119.101 58.4681 120.604C59.8005 122.335 60.9598 123.892 60.3715 125.795C60.2531 126.073 60.2024 126.374 60.2235 126.675C60.2445 126.976 60.3368 127.268 60.4926 127.526C61.4381 128.684 62.7847 129.444 64.2647 129.654C63.2784 128.875 61.3751 126.418 63.5034 121.66C64.2128 119.549 63.5034 118.32 62.1018 116.106C60.9126 114.494 60.0969 112.638 59.7139 110.672C58.8315 104.807 64.0225 100.36 64.1955 100.238C64.3685 100.117 64.8184 99.4425 65.3202 99.3733C67.0506 99.1483 69.9748 96.3106 72.5184 97.2449C73.7304 97.7103 75.0106 97.9733 76.3079 98.0236V98.0236C76.3939 98.0361 76.4814 98.0361 76.5674 98.0236C76.7343 98.0391 76.9023 98.0391 77.0692 98.0236C78.1924 97.9545 79.297 97.7032 80.3396 97.2795C82.8312 96.3452 86.1535 99.2867 87.953 99.5117C88.1457 99.5382 88.3292 99.6101 88.4887 99.7214C88.6481 99.8327 88.7788 99.9802 88.8701 100.152L89.0431 100.342C89.9948 101.19 94.1476 105.274 93.4036 110.43C93.0206 112.396 92.2049 114.252 91.0157 115.863C90.4671 116.706 90.1086 117.658 89.9652 118.653C89.8217 119.648 89.8968 120.662 90.1852 121.625C90.3092 122.018 90.4132 122.416 90.4966 122.819C90.4966 122.819 90.4966 122.819 90.4966 122.923C90.8463 124.005 90.8907 125.162 90.6251 126.267C90.3595 127.372 89.7941 128.382 88.9912 129.187L88.6798 129.498C90.1076 129.272 91.4016 128.527 92.3135 127.405C92.4762 127.15 92.5739 126.858 92.598 126.557C92.6222 126.255 92.572 125.952 92.4519 125.674C91.8463 123.806 93.0056 122.214 94.338 120.483C95.6718 118.984 96.6636 117.213 97.2449 115.292C98.6638 109.824 96.4663 98.387 92.5211 94.909C90.8773 93.5939 89.0258 91.829 87.3647 90.289Z" fill="white"/>
<path d="M106.191 92.8326C106.198 92.5405 106.239 92.2503 106.312 91.9674C106.312 91.9674 106.312 91.9674 106.312 91.8463C106.543 90.8114 106.676 89.757 106.71 88.6971C106.754 86.7943 106.526 84.895 106.035 83.0562C105.615 81.523 105.035 80.0383 104.305 78.6265V78.6265C102.928 80.8457 101.708 83.1584 100.654 85.5479C99.7479 87.5588 99.052 89.6579 98.5773 91.8117C98.3141 92.9121 98.1691 94.0374 98.1447 95.1685C98.2387 97.6704 98.8951 100.119 100.065 102.332C101.881 105.604 102.417 109.433 101.571 113.078C102.993 111.613 103.947 109.757 104.311 107.748C104.675 105.738 104.431 103.666 103.613 101.796C104.255 101.959 104.828 102.322 105.251 102.832C105.674 103.342 105.924 103.972 105.966 104.633C106.726 103.992 107.343 103.199 107.778 102.305C108.213 101.411 108.456 100.436 108.492 99.4425C108.546 98.0657 108.118 96.7132 107.281 95.6184C106.613 94.8399 106.228 93.8578 106.191 92.8326V92.8326Z" fill="white"/>
<path d="M47.9822 73.0548C48.3039 72.9475 48.6164 72.8144 48.9166 72.6569C48.9839 72.6035 49.06 72.5625 49.1416 72.5357V72.5357C49.2412 72.4908 49.3344 72.4326 49.4184 72.3627C53.9 69.127 54.6094 57.4818 59.2294 54.5229C61.0458 53.1983 63.1028 52.2403 65.2856 51.7025C66.3893 51.3766 67.417 50.8338 68.3083 50.1059C69.1996 49.378 69.9368 48.4795 70.4766 47.4631C63.4184 48.014 56.5068 49.7697 50.0413 52.6542C49.5049 53.4674 48.311 55.2324 47.6362 56.1148C45.4733 59.0391 42.9989 62.3267 42.4452 66.1681C43.3918 65.8816 44.2613 65.3847 44.9888 64.7146L45.5252 64.3339L45.3521 64.9742C44.9766 66.475 44.455 67.9354 43.7948 69.3346C42.3546 72.6495 41.9388 76.3193 42.6009 79.8724C42.8009 81.3775 43.0956 82.8686 43.4834 84.3366C43.4834 84.0425 43.5872 83.6791 43.6564 83.3157C43.6564 82.589 43.7602 81.7584 43.8813 80.8587C44.2793 77.6748 45.3694 73.9719 47.9822 73.0548Z" fill="white"/>
<path d="M107.489 64.9742L107.281 64.3339L107.8 64.7146C108.839 65.4575 110.015 65.9868 111.261 66.2719C110.638 62.6036 108.008 59.3506 105.672 56.4609C104.833 55.2016 104.098 53.8764 103.474 52.4984C96.7953 49.5465 89.6502 47.7895 82.364 47.3074C83.0022 48.7013 83.956 49.9276 85.1499 50.8892V50.8892C85.8738 51.2585 86.6499 51.5152 87.4512 51.6506C87.9485 51.7374 88.4519 51.7837 88.9566 51.789C89.2217 51.7726 89.4875 51.7726 89.7526 51.789C90.9408 51.9999 92.0214 52.6104 92.8153 53.5193C92.971 53.6751 93.1787 53.8481 93.3517 54.0557C93.395 54.1053 93.4354 54.1573 93.4728 54.2115C97.4353 58.7795 98.8369 68.8847 103.37 72.1204C103.445 72.1937 103.533 72.2523 103.63 72.2935C103.664 72.4329 103.729 72.5629 103.82 72.6742C104.112 72.8567 104.426 73.002 104.755 73.1067C107.506 74.0757 108.579 78.1247 108.959 81.3604C108.959 82.0699 109.08 82.7447 109.115 83.333C109.115 83.6964 109.253 84.0598 109.288 84.3539C109.513 83.4542 109.824 82.1218 110.067 80.5472C110.586 77.0865 110.776 72.5876 108.977 69.3519C108.326 67.95 107.827 66.4823 107.489 64.9742V64.9742Z" fill="white"/>
<path d="M51.9101 85.2191C50.9099 82.95 49.7536 80.753 48.4495 78.6438V78.6438C47.7348 79.9303 47.1549 81.2872 46.7191 82.6928C46.1847 84.4906 45.9051 86.3544 45.8886 88.2299C45.8878 89.4292 46.0213 90.6248 46.2865 91.7944C46.2865 91.7944 46.2865 91.8809 46.2865 91.9155C46.3595 92.1984 46.4002 92.4886 46.4077 92.7807C46.3846 93.7996 46.0188 94.781 45.3694 95.5665C44.5295 96.6358 44.0835 97.9618 44.1063 99.3214C44.1421 100.315 44.3854 101.29 44.8205 102.184C45.2556 103.078 45.8728 103.871 46.6326 104.512C46.6744 103.851 46.9246 103.22 47.3475 102.711C47.7703 102.201 48.3439 101.838 48.9859 101.675C48.167 103.545 47.9239 105.617 48.2876 107.627C48.6512 109.636 49.6051 111.491 51.0277 112.956C50.1814 109.312 50.7178 105.483 52.533 102.211C53.7341 100.046 54.4376 97.6399 54.5921 95.1685C54.5781 94.0034 54.4389 92.8432 54.1769 91.7079C53.6442 89.4734 52.8847 87.2992 51.9101 85.2191Z" fill="white"/>
<path d="M79.7166 67.8811C79.6988 67.8189 79.6988 67.753 79.7166 67.6908C79.8205 67.4312 80.5299 67.0506 81.5681 66.6007C85.3338 65.0789 89.2243 63.8862 93.196 63.0362C93.8268 63.0716 94.4311 63.3013 94.9263 63.6937C93.196 59.5755 91.0676 56.011 87.5032 56.011C82.9351 56.011 80.08 51.4256 78.3843 47.1863C77.8306 47.1863 77.2769 47.1863 76.6539 47.1863H76.2387C75.5292 47.1863 74.8371 47.1863 74.1449 47.1863C72.4146 51.4256 69.5942 56.011 65.0088 56.011C61.4443 56.011 59.2814 59.5755 57.5856 63.6937C58.0808 63.3013 58.6852 63.0716 59.316 63.0362C63.2876 63.8862 67.1781 65.0789 70.9438 66.6007C71.982 67.0506 72.6742 67.4312 72.7953 67.6908C72.8079 67.7652 72.8079 67.8413 72.7953 67.9157V79.8205C71.8609 78.8861 71.3418 76.1694 71.065 74.0238L70.9438 73.9373L70.3209 73.6258H70.096C69.8591 73.5547 69.6156 73.5084 69.3692 73.4874V73.4874C67.6195 73.819 65.8513 74.0444 64.0744 74.1622C63.7114 74.1869 63.3472 74.1869 62.9843 74.1622C61.5407 73.9818 60.166 73.4402 58.9872 72.5876L57.6894 71.7052C58.3521 71.0051 59.1606 70.4594 60.0577 70.1065C60.9548 69.7537 61.9184 69.6024 62.8805 69.6634C63.4607 69.6785 64.039 69.7363 64.6108 69.8364L66.8429 70.2171C68.2597 70.3533 69.6387 70.7523 70.9092 71.3937V71.3937C70.6546 71.0094 70.3711 70.645 70.0614 70.3036C69.9205 70.1339 69.7703 69.9722 69.6115 69.8191C69.5076 69.7153 69.4211 69.5942 69.3 69.4903C67.9019 68.3004 66.261 67.4299 64.4917 66.9398C62.7224 66.4497 60.8675 66.3517 59.0564 66.6526C58.166 66.7515 57.2821 66.9017 56.409 67.1025C54.6787 71.8955 53.8308 76.3771 51.3391 76.3944C51.1619 76.3607 50.9799 76.3607 50.8027 76.3944V76.3944L55.0939 83.3157C55.2461 83.6481 55.379 83.989 55.4919 84.3366C55.7231 85.3146 56.0839 86.2573 56.5647 87.1398C56.7205 87.4512 56.8935 87.7281 57.0492 87.9876C57.205 88.2472 57.3953 88.5067 57.5683 88.7317L58.0182 89.32L58.7969 90.2025C59.8824 89.9831 60.9311 89.6102 61.9115 89.0951L62.8458 88.6106C63.2092 88.4029 63.5899 88.2126 63.9879 88.0222C65.1818 87.4858 67.9157 86.5342 67.933 86.5342C68.158 85.2537 68.729 83.0735 70.3209 82.7793C70.5614 82.7377 70.8072 82.7377 71.0476 82.7793C71.3807 82.894 71.6785 83.0929 71.9119 83.3567C72.1454 83.6205 72.3067 83.9402 72.38 84.2847C72.3418 84.2467 72.2955 84.2176 72.2446 84.1996C72.1938 84.1817 72.1395 84.1753 72.0858 84.1809V84.1809C71.6892 84.2268 71.2886 84.2268 70.8919 84.1809H70.667C69.5076 84.1809 69.5942 85.5306 69.7153 86.5169L71.3072 87.2436L72.1378 87.6243L73.2971 88.1434C74.2616 88.5782 75.2494 88.9594 76.256 89.2854V89.2854C78.4582 88.542 80.6037 87.6398 82.6755 86.5861V86.5861C82.7966 85.5998 82.8832 84.2501 81.7238 84.2501H81.4989C81.1021 84.2058 80.7017 84.2058 80.305 84.2501V84.2501C80.2513 84.2445 80.197 84.2509 80.1462 84.2688C80.0953 84.2868 80.049 84.3159 80.0108 84.3539C80.0842 84.0094 80.2454 83.6897 80.4789 83.4259C80.7123 83.1621 81.0101 82.9632 81.3432 82.8485C81.5836 82.8069 81.8294 82.8069 82.0699 82.8485C83.6618 83.0562 84.2328 85.3229 84.4578 86.6034C84.4578 86.6034 87.209 87.5551 88.4029 88.0915L89.32 88.5587L90.4793 89.1643C91.4597 89.6794 92.5084 90.0523 93.5939 90.2717L94.3726 89.3892L94.8225 88.8009C94.9955 88.576 95.1685 88.3337 95.3416 88.0569C95.5146 87.78 95.6703 87.5205 95.8261 87.209L95.9818 86.9148C96.0741 86.7418 96.1606 86.5515 96.2414 86.3438C96.3325 86.1463 96.4133 85.9441 96.4836 85.7382C96.5701 85.5306 96.6393 85.3229 96.7085 85.098C96.7778 84.873 96.847 84.6481 96.8989 84.4058C97.0118 84.0582 97.1447 83.7173 97.2969 83.3849L101.744 76.4636C101.567 76.4299 101.385 76.4299 101.207 76.4636V76.4636C98.7157 76.4636 97.7468 71.8782 96.0164 67.0852C95.1433 66.8844 94.2594 66.7342 93.369 66.6353C91.5579 66.3343 89.703 66.4324 87.9337 66.9225C86.1644 67.4126 84.5235 68.2831 83.1254 69.473C83.0043 69.5769 82.9178 69.698 82.8139 69.8018C82.6551 69.9549 82.5049 70.1166 82.364 70.2863C82.0543 70.6277 81.7708 70.9921 81.5162 71.3764H81.6027C82.8733 70.735 84.2522 70.336 85.669 70.1998L87.9011 69.8191C88.4729 69.719 89.0512 69.6612 89.6315 69.6461C90.5935 69.5851 91.5572 69.7364 92.4542 70.0892C93.3513 70.4421 94.1598 70.9878 94.8225 71.6879L93.5247 72.5703C92.3459 73.4229 90.9712 73.9645 89.5277 74.1449C89.1647 74.1696 88.8005 74.1696 88.4375 74.1449H88.2472C85.9285 74.1449 84.3539 73.4701 83.1946 73.4701C82.9482 73.491 82.7047 73.5374 82.4679 73.6085H82.2429L81.62 73.92L81.4989 74.0065C81.222 76.1521 80.7029 78.8688 79.7685 79.8031V67.8638L79.7166 67.8811Z" fill="white"/>
</svg>

<svg width="154" height="154" fill="none" xmlns="http://www.w3.org/2000/svg"><path d="M76.792 153.585c42.412 0 76.793-34.381 76.793-76.793C153.585 34.382 119.204 0 76.792 0 34.382 0 0 34.381 0 76.792c0 42.412 34.381 76.793 76.792 76.793z" fill="#01052D"/><path d="M53.64 45.56a74.524 74.524 0 0 1 23.447-3.582 74.593 74.593 0 0 1 22.823 3.46l.38-.657c.641-1.142 1.263-2.232 1.869-3.34l7.631-13.271-14.327 3.616 2.595 1.402a3.045 3.045 0 0 1 1.506 3.737 2.941 2.941 0 0 1-3.755 1.627 52.31 52.31 0 0 0-12.528-3.27 2.855 2.855 0 0 1-2.422-2.855 3.201 3.201 0 0 1 3.2-3.202h2.06L76.723 17.58 67.31 29.225h2.06a3.203 3.203 0 0 1 3.304 3.132 2.855 2.855 0 0 1-2.422 2.855 49.865 49.865 0 0 0-13.514 3.703h-.242a3.46 3.46 0 0 1-2.734-2.837 2.89 2.89 0 0 1 1.54-2.856l2.768-1.505-14.31-3.616 7.58 13.237c.76 1.436 1.574 2.803 2.3 4.222zm29.087 55.215a8.348 8.348 0 0 0-6.315-1.056 8.185 8.185 0 0 0-6.333 1.056 24.508 24.508 0 0 0 6.471 1.263 21.644 21.644 0 0 0 6.177-1.263z" fill="#fff"/><path d="M88.109 113.96a10.69 10.69 0 0 0 1.869-4.066 7.769 7.769 0 0 0-1.333-5.295 5.346 5.346 0 0 0-2.803-2.146 16.168 16.168 0 0 1-1.73-.726 10.628 10.628 0 0 1-7.614 2.958 13.27 13.27 0 0 1-8.029-2.768c-.415.173-.847.329-1.297.484-.697.25-1.33.652-1.852 1.177a8.656 8.656 0 0 0-2.163 6.437 10.69 10.69 0 0 0 1.87 4.066 9.12 9.12 0 0 1 1.504 8.029 7.495 7.495 0 0 1-.726 1.505 18.03 18.03 0 0 0 2.89 3.132 12.82 12.82 0 0 0 7.198 3.461 1.732 1.732 0 0 1-.26-1.99c.186-.302.407-.58.658-.831.969-1.176 2.595-3.062 2.024-4.827l-.19-.64.57.363s1.593 1.177-.31 5.329a3.65 3.65 0 0 0-.226 3.028 3.995 3.995 0 0 0 2.06 1.973c.138-1.177.934-5.191 4.1-5.191a6.803 6.803 0 0 0 4.24-2.128 9.882 9.882 0 0 1-.45-11.334z" fill="#fff"/><path d="M87.365 90.289l-2.578-2.319c0 .502-.485 1.125-1.592 1.73l-.33.191a22.183 22.183 0 0 1-5.657 2.024c-.5.07-1.006.07-1.506 0h-.363a21.386 21.386 0 0 1-5.364-1.938c-1.627-.865-1.99-1.73-1.99-2.266-.502.467-1.09 1.073-1.73 1.73-1.73 1.73-3.928 3.859-5.953 5.59-3.962 3.46-6.16 14.915-4.724 20.382a14.008 14.008 0 0 0 2.89 5.191c1.332 1.731 2.492 3.288 1.903 5.191a1.904 1.904 0 0 0 .122 1.731 5.95 5.95 0 0 0 3.772 2.128c-.987-.779-2.89-3.236-.762-7.994.71-2.111 0-3.34-1.401-5.554a13.502 13.502 0 0 1-2.388-5.434c-.883-5.865 4.308-10.312 4.481-10.434.174-.121.623-.796 1.125-.865 1.73-.225 4.655-3.062 7.198-2.128 1.212.465 2.493.728 3.79.779a.903.903 0 0 0 .26 0c.166.015.334.015.501 0a10.38 10.38 0 0 0 3.27-.745c2.492-.934 5.814 2.008 7.614 2.233a1.228 1.228 0 0 1 .917.64l.173.19c.952.848 5.105 4.932 4.36 10.088a13.492 13.492 0 0 1-2.387 5.433 6.927 6.927 0 0 0-.83 5.762c.123.393.227.791.31 1.194v.104a6.178 6.178 0 0 1-1.505 6.264l-.311.311a5.863 5.863 0 0 0 3.633-2.093 1.854 1.854 0 0 0 .139-1.731c-.606-1.868.554-3.46 1.886-5.191a13.838 13.838 0 0 0 2.907-5.191c1.419-5.468-.779-16.905-4.724-20.383-1.644-1.315-3.495-3.08-5.156-4.62zm18.826 2.544a3.83 3.83 0 0 1 .121-.866v-.12a16.95 16.95 0 0 0 .398-3.15 20.068 20.068 0 0 0-.675-5.64c-.42-1.534-1-3.019-1.73-4.43a55.97 55.97 0 0 0-3.651 6.92 32.027 32.027 0 0 0-2.077 6.265 15.905 15.905 0 0 0-.432 3.356c.094 2.502.75 4.951 1.92 7.164a15.105 15.105 0 0 1 1.506 10.746 10.287 10.287 0 0 0 2.042-11.282 3.128 3.128 0 0 1 2.353 2.837 7.12 7.12 0 0 0 2.526-5.19 5.914 5.914 0 0 0-1.211-3.825 4.53 4.53 0 0 1-1.09-2.785zM47.982 73.055c.322-.108.634-.24.935-.398a.727.727 0 0 1 .225-.121c.1-.045.192-.103.276-.173 4.482-3.236 5.191-14.881 9.811-17.84a17.304 17.304 0 0 1 6.057-2.82 8.653 8.653 0 0 0 5.19-4.24 61.997 61.997 0 0 0-20.435 5.191c-.536.813-1.73 2.578-2.405 3.46-2.163 2.925-4.637 6.213-5.19 10.054a6.559 6.559 0 0 0 2.543-1.453l.536-.381-.173.64a23.697 23.697 0 0 1-1.557 4.36A18.116 18.116 0 0 0 42.6 79.873c.2 1.505.495 2.997.882 4.465 0-.294.104-.658.173-1.021 0-.727.104-1.558.225-2.457.398-3.184 1.488-6.887 4.101-7.804zm59.507-8.08l-.208-.641.519.38a9.65 9.65 0 0 0 3.461 1.558c-.623-3.668-3.253-6.921-5.589-9.811a27.914 27.914 0 0 1-2.198-3.963 62.412 62.412 0 0 0-21.11-5.19 9.88 9.88 0 0 0 2.786 3.581c.724.37 1.5.626 2.301.762.498.086 1 .133 1.506.138.265-.016.53-.016.796 0a5.295 5.295 0 0 1 3.062 1.73c.156.156.364.33.537.537.043.05.083.101.12.156 3.963 4.567 5.365 14.673 9.898 17.908a.843.843 0 0 0 .26.173c.034.14.099.27.19.381.292.183.606.328.935.433 2.751.969 3.824 5.018 4.204 8.253 0 .71.121 1.385.156 1.973 0 .363.138.727.173 1.02.225-.899.536-2.231.779-3.806.519-3.46.709-7.96-1.09-11.195a21.622 21.622 0 0 1-1.488-4.378zM51.91 85.218a53.627 53.627 0 0 0-3.46-6.575 21.368 21.368 0 0 0-1.73 4.049 20.052 20.052 0 0 0-.831 5.537c-.001 1.2.132 2.395.397 3.564v.121c.073.283.114.574.122.866a4.533 4.533 0 0 1-1.039 2.785 5.918 5.918 0 0 0-1.263 3.755 7.128 7.128 0 0 0 2.527 5.191 3.127 3.127 0 0 1 2.353-2.837 10.276 10.276 0 0 0 2.042 11.281 15.106 15.106 0 0 1 1.505-10.745 16.66 16.66 0 0 0 2.06-7.043 16.258 16.258 0 0 0-.416-3.46 33.73 33.73 0 0 0-2.267-6.489z" fill="#fff"/><path d="M79.717 67.881a.346.346 0 0 1 0-.19c.103-.26.813-.64 1.851-1.09a70.299 70.299 0 0 1 11.628-3.565c.63.036 1.235.265 1.73.658-1.73-4.119-3.858-7.683-7.423-7.683-4.568 0-7.423-4.585-9.119-8.825h-4.239c-1.73 4.24-4.55 8.825-9.136 8.825-3.565 0-5.728 3.564-7.423 7.683a3.063 3.063 0 0 1 1.73-.658 70.3 70.3 0 0 1 11.628 3.565c1.038.45 1.73.83 1.851 1.09a.674.674 0 0 1 0 .225V79.82c-.934-.934-1.453-3.65-1.73-5.796l-.121-.087-.623-.311h-.225a3.588 3.588 0 0 0-.727-.139c-1.75.332-3.518.557-5.295.675a8.028 8.028 0 0 1-1.09 0 8.65 8.65 0 0 1-3.997-1.574l-1.298-.883a6.575 6.575 0 0 1 5.191-2.042c.58.016 1.159.073 1.73.173l2.233.381c1.417.136 2.796.535 4.066 1.177a9.116 9.116 0 0 0-.848-1.09 5.974 5.974 0 0 0-.45-.485c-.103-.104-.19-.225-.311-.329a12.614 12.614 0 0 0-10.244-2.837c-.89.098-1.774.249-2.647.45-1.73 4.793-2.578 9.274-5.07 9.291a1.436 1.436 0 0 0-.536 0l4.29 6.922c.153.332.286.673.399 1.02a11.27 11.27 0 0 0 1.073 2.804c.156.311.329.588.484.848.156.26.346.519.52.744l.45.588.778.883a11.665 11.665 0 0 0 3.114-1.108l.935-.484a17.67 17.67 0 0 1 1.142-.589c1.194-.536 3.928-1.488 3.945-1.488.225-1.28.796-3.46 2.388-3.755.24-.041.486-.041.727 0a2.041 2.041 0 0 1 1.332 1.506.364.364 0 0 0-.294-.104 5.193 5.193 0 0 1-1.194 0h-.225c-1.16 0-1.073 1.35-.952 2.336l1.592.727.83.38 1.16.52c.965.434 1.952.815 2.959 1.141a48.09 48.09 0 0 0 6.42-2.699c.12-.986.207-2.336-.952-2.336h-.225a5.38 5.38 0 0 0-1.194 0 .364.364 0 0 0-.294.104 2.042 2.042 0 0 1 1.332-1.505c.24-.042.486-.042.727 0 1.592.207 2.163 2.474 2.388 3.754 0 0 2.751.952 3.945 1.489l.917.467 1.16.605c.98.515 2.028.888 3.114 1.108l.779-.883.45-.588c.173-.225.346-.467.519-.744.173-.277.328-.537.484-.848l.156-.294a5.28 5.28 0 0 0 .26-.571c.09-.198.171-.4.242-.606.086-.207.155-.415.225-.64.069-.225.138-.45.19-.692.113-.348.246-.689.398-1.021l4.447-6.921a1.439 1.439 0 0 0-.537 0c-2.491 0-3.46-4.586-5.19-9.379-.874-.2-1.758-.35-2.648-.45a12.614 12.614 0 0 0-10.244 2.838c-.12.104-.207.225-.311.329a5.974 5.974 0 0 0-.45.484 9.2 9.2 0 0 0-.848 1.09h.087c1.27-.641 2.65-1.04 4.066-1.176l2.232-.38c.572-.101 1.15-.159 1.73-.174a6.575 6.575 0 0 1 5.192 2.042l-1.298.882a8.65 8.65 0 0 1-3.997 1.575 8.03 8.03 0 0 1-1.09 0h-.19c-2.32 0-3.894-.675-5.053-.675-.247.021-.49.067-.727.139h-.225l-.623.311-.121.087c-.277 2.145-.796 4.862-1.73 5.796v-11.94l-.052.018z" fill="#fff"/></svg>
